X: 112
T:New York Jig, The
M:6/8
L:1/8
S:John Skelton, One At A Time
R:Jig
N:Skelton remembers the name of this tune only as The New York Jig
D:John Skelton, One At A Time (PAN 146CD)
Z:Chris Corrigan
Z:, 4/4/2000
K:D
dAG FAE|DFA dcd|eAA GAA|EAA edc
|dAG FAE|DFA dcd|eAA GAA|1 edc d3:|2 edc dAG||
F2 A FAF|G2 B BAG|FGA dAF|EBA BAG|
F2 A FAF|G2 B BAG|AFA dAF|FEc d3:|
<end>
<start>
